Newaita/actions/24/dialog-text-and-font.svg

<svg height="24" viewBox="0 0 24 24" width="24" xmlns="http://www.w3.org/2000/svg"><g fill="#424242"><path d="m4.960938 2.171875h13.890624v1.984375h-13.890624zm0 0"/><path d="m4.960938 2.171875c.546874 0 .992187.445313.992187.992187v1.984376c0 .546874-.445313.992187-.992187.992187-.546876 0-.992188-.445313-.992188-.992187v-1.984376c0-.546874.445312-.992187.992188-.992187zm0 0"/><path d="m18.851562 2.171875c.550782 0 .992188.445313.992188.992187v1.984376c0 .546874-.441406.992187-.992188.992187-.546874 0-.992187-.445313-.992187-.992187v-1.984376c0-.546874.445313-.992187.992187-.992187zm0 0"/><path d="m11.90625 2.171875c.550781 0 .992188.445313.992188.992187v17.863282c0 .546875-.441407.992187-.992188.992187-.546875 0-.992188-.445312-.992188-.992187v-17.863282c0-.546874.445313-.992187.992188-.992187zm0 0"/><path d="m9.910156 20.03125h3.980469c.550781 0 .992187.445312.992187.996094 0 .546875-.441406.992187-.992187.992187h-3.980469c-.546875 0-.992187-.445312-.992187-.992187 0-.550782.445312-.996094.992187-.996094zm0 0"/></g></svg>

<svg xmlns="http://www.w3.org/2000/svg" xmlns:xlink="http://www.w3.org/1999/xlink" width="24px" height="24px" viewBox="0 0 24 24" version="1.1">
<g id="surface1">
     <defs>
  <style id="current-color-scheme" type="text/css">
   .ColorScheme-Text { color:#424242; } .ColorScheme-Highlight { color:#eeeeee; }
  </style>
 </defs>
<path style="fill:currentColor" class="ColorScheme-Text" d="M 4.960938 2.171875 L 18.851562 2.171875 L 18.851562 4.15625 L 4.960938 4.15625 Z M 4.960938 2.171875 "/>
     <defs>
  <style id="current-color-scheme" type="text/css">
   .ColorScheme-Text { color:#424242; } .ColorScheme-Highlight { color:#eeeeee; }
  </style>
 </defs>
<path style="fill:currentColor" class="ColorScheme-Text" d="M 4.960938 2.171875 C 5.507812 2.171875 5.953125 2.617188 5.953125 3.164062 L 5.953125 5.148438 C 5.953125 5.695312 5.507812 6.140625 4.960938 6.140625 C 4.414062 6.140625 3.96875 5.695312 3.96875 5.148438 L 3.96875 3.164062 C 3.96875 2.617188 4.414062 2.171875 4.960938 2.171875 Z M 4.960938 2.171875 "/>
     <defs>
  <style id="current-color-scheme" type="text/css">
   .ColorScheme-Text { color:#424242; } .ColorScheme-Highlight { color:#eeeeee; }
  </style>
 </defs>
<path style="fill:currentColor" class="ColorScheme-Text" d="M 18.851562 2.171875 C 19.402344 2.171875 19.84375 2.617188 19.84375 3.164062 L 19.84375 5.148438 C 19.84375 5.695312 19.402344 6.140625 18.851562 6.140625 C 18.304688 6.140625 17.859375 5.695312 17.859375 5.148438 L 17.859375 3.164062 C 17.859375 2.617188 18.304688 2.171875 18.851562 2.171875 Z M 18.851562 2.171875 "/>
     <defs>
  <style id="current-color-scheme" type="text/css">
   .ColorScheme-Text { color:#424242; } .ColorScheme-Highlight { color:#eeeeee; }
  </style>
 </defs>
<path style="fill:currentColor" class="ColorScheme-Text" d="M 11.90625 2.171875 C 12.457031 2.171875 12.898438 2.617188 12.898438 3.164062 L 12.898438 21.027344 C 12.898438 21.574219 12.457031 22.019531 11.90625 22.019531 C 11.359375 22.019531 10.914062 21.574219 10.914062 21.027344 L 10.914062 3.164062 C 10.914062 2.617188 11.359375 2.171875 11.90625 2.171875 Z M 11.90625 2.171875 "/>
     <defs>
  <style id="current-color-scheme" type="text/css">
   .ColorScheme-Text { color:#424242; } .ColorScheme-Highlight { color:#eeeeee; }
  </style>
 </defs>
<path style="fill:currentColor" class="ColorScheme-Text" d="M 9.910156 20.03125 L 13.890625 20.03125 C 14.441406 20.03125 14.882812 20.476562 14.882812 21.027344 C 14.882812 21.574219 14.441406 22.019531 13.890625 22.019531 L 9.910156 22.019531 C 9.363281 22.019531 8.917969 21.574219 8.917969 21.027344 C 8.917969 20.476562 9.363281 20.03125 9.910156 20.03125 Z M 9.910156 20.03125 "/>
</g>
</svg>
